X:26
T:Road to Lisdoonvarna
Z: id:dc-slide-27
M:6/8
L:1/8
K:E Dorian
E2B B2A|B2c d3|F2A ABA|D2E FED|!
E2B B2A|B2c d3|cdc B2A|B2E E3:|!
e2f gfe|d2B Bcd|c2A ABc|d2B B3|!
e2f gfe|d2B Bcd|cdc B2A|B2E E3:|

